dist/img/svg/benefits-04.svg

<svg width="20" height="21" viewBox="0 0 20 21" fill="none" xmlns="http://www.w3.org/2000/svg">
<path d="M18.75 0.4375H1.25C0.911458 0.4375 0.61849 0.561198 0.371094 0.808594C0.123698 1.05599 0 1.34896 0 1.6875V19.1875C0 19.526 0.123698 19.819 0.371094 20.0664C0.61849 20.3138 0.911458 20.4375 1.25 20.4375H18.75C19.0885 20.4375 19.3815 20.3138 19.6289 20.0664C19.8763 19.819 20 19.526 20 19.1875V1.6875C20 1.46615 19.9414 1.25781 19.8242 1.0625C19.7201 0.867188 19.5703 0.717448 19.375 0.613281C19.1797 0.496094 18.9714 0.4375 18.75 0.4375ZM18.75 19.1875H1.25V1.6875H18.75V19.1875ZM4.375 7.3125H5.625V8.5625C5.625 8.74479 5.68359 8.89453 5.80078 9.01172C5.93099 9.12891 6.08073 9.1875 6.25 9.1875C6.41927 9.1875 6.5625 9.12891 6.67969 9.01172C6.8099 8.89453 6.875 8.74479 6.875 8.5625V7.3125H8.125C8.29427 7.3125 8.4375 7.25391 8.55469 7.13672C8.6849 7.01953 8.75 6.8763 8.75 6.70703C8.75 6.52474 8.6849 6.375 8.55469 6.25781C8.4375 6.1276 8.29427 6.0625 8.125 6.0625H6.875V4.8125C6.875 4.64323 6.8099 4.5 6.67969 4.38281C6.5625 4.2526 6.41927 4.1875 6.25 4.1875C6.08073 4.1875 5.93099 4.2526 5.80078 4.38281C5.68359 4.5 5.625 4.64323 5.625 4.8125V6.0625H4.375C4.20573 6.0625 4.05599 6.1276 3.92578 6.25781C3.80859 6.375 3.75 6.52474 3.75 6.70703C3.75 6.8763 3.80859 7.01953 3.92578 7.13672C4.05599 7.25391 4.20573 7.3125 4.375 7.3125ZM8.65234 12.4297C8.65234 12.2604 8.58724 12.1172 8.45703 12C8.33984 11.8698 8.1901 11.8047 8.00781 11.8047C7.83854 11.8047 7.69531 11.8633 7.57812 11.9805L6.25 13.3086L4.92188 11.9805C4.80469 11.8633 4.65495 11.8047 4.47266 11.8047C4.30339 11.8047 4.15365 11.8698 4.02344 12C3.90625 12.1172 3.84766 12.2604 3.84766 12.4297C3.84766 12.599 3.91276 12.7422 4.04297 12.8594L5.37109 14.1875L4.04297 15.5156C3.96484 15.5938 3.90625 15.6914 3.86719 15.8086C3.84115 15.9128 3.84115 16.0169 3.86719 16.1211C3.90625 16.2253 3.96484 16.3164 4.04297 16.3945C4.09505 16.4596 4.16016 16.5117 4.23828 16.5508C4.31641 16.5768 4.39453 16.5898 4.47266 16.5898C4.5638 16.5898 4.64844 16.5768 4.72656 16.5508C4.80469 16.5117 4.86979 16.4596 4.92188 16.3945L6.25 15.0859L7.57812 16.3945C7.63021 16.4596 7.69531 16.5117 7.77344 16.5508C7.85156 16.5768 7.92969 16.5898 8.00781 16.5898C8.09896 16.5898 8.18359 16.5768 8.26172 16.5508C8.33984 16.5117 8.40495 16.4596 8.45703 16.3945C8.75651 16.1081 8.75651 15.8151 8.45703 15.5156L7.12891 14.1875L8.45703 12.8594C8.58724 12.7422 8.65234 12.599 8.65234 12.4297ZM11.875 7.3125H15.625C15.7943 7.3125 15.9375 7.25391 16.0547 7.13672C16.1849 7.01953 16.25 6.8763 16.25 6.70703C16.25 6.52474 16.1849 6.375 16.0547 6.25781C15.9375 6.1276 15.7943 6.0625 15.625 6.0625H11.875C11.7057 6.0625 11.556 6.1276 11.4258 6.25781C11.3086 6.375 11.25 6.52474 11.25 6.70703C11.25 6.8763 11.3086 7.01953 11.4258 7.13672C11.556 7.25391 11.7057 7.3125 11.875 7.3125ZM11.875 13.5625H15.625C15.7943 13.5625 15.9375 13.5039 16.0547 13.3867C16.1849 13.2695 16.25 13.1263 16.25 12.957C16.25 12.7747 16.1849 12.625 16.0547 12.5078C15.9375 12.3776 15.7943 12.3125 15.625 12.3125H11.875C11.7057 12.3125 11.556 12.3776 11.4258 12.5078C11.3086 12.625 11.25 12.7747 11.25 12.957C11.25 13.1263 11.3086 13.2695 11.4258 13.3867C11.556 13.5039 11.7057 13.5625 11.875 13.5625ZM11.875 16.0625H15.625C15.7943 16.0625 15.9375 16.0039 16.0547 15.8867C16.1849 15.7695 16.25 15.6263 16.25 15.457C16.25 15.2747 16.1849 15.125 16.0547 15.0078C15.9375 14.8776 15.7943 14.8125 15.625 14.8125H11.875C11.7057 14.8125 11.556 14.8776 11.4258 15.0078C11.3086 15.125 11.25 15.2747 11.25 15.457C11.25 15.6263 11.3086 15.7695 11.4258 15.8867C11.556 16.0039 11.7057 16.0625 11.875 16.0625Z" fill="#C78E66"/>
</svg>

<svg width="20" height="21" viewBox="0 0 20 21" fill="none" xmlns="http://www.w3.org/2000/svg"><path d="M18.75.438H1.25a1.2 1.2 0 0 0-.879.369C.124 1.057 0 1.35 0 1.689v17.5c0 .338.124.631.371.878.247.248.54.372.879.372h17.5c.338 0 .631-.124.879-.372a1.2 1.2 0 0 0 .371-.878v-17.5c0-.222-.059-.43-.176-.625a1.068 1.068 0 0 0-.449-.45 1.195 1.195 0 0 0-.625-.175zm0 18.75H1.25v-17.5h17.5v17.5zM4.375 7.313h1.25v1.25c0 .182.059.332.176.449.13.117.28.175.449.175.17 0 .313-.058.43-.175a.577.577 0 0 0 .195-.45v-1.25h1.25c.17 0 .313-.058.43-.175a.556.556 0 0 0 .195-.43.577.577 0 0 0-.195-.45.556.556 0 0 0-.43-.194h-1.25v-1.25a.556.556 0 0 0-.195-.43.556.556 0 0 0-.43-.196.617.617 0 0 0-.45.196.584.584 0 0 0-.175.43v1.25h-1.25a.617.617 0 0 0-.45.195.608.608 0 0 0-.175.449c0 .17.059.313.176.43.13.117.28.176.449.176zm4.277 5.117a.556.556 0 0 0-.195-.43.577.577 0 0 0-.45-.195.584.584 0 0 0-.429.175L6.25 13.31l-1.328-1.33a.608.608 0 0 0-.45-.175.618.618 0 0 0-.449.195.584.584 0 0 0-.175.43c0 .169.065.312.195.43l1.328 1.328-1.328 1.328a.736.736 0 0 0-.176.293.635.635 0 0 0 0 .312c.04.104.098.195.176.274a.577.577 0 0 0 .195.156.8.8 0 0 0 .488 0 .577.577 0 0 0 .196-.156l1.328-1.31 1.328 1.31a.577.577 0 0 0 .195.156.8.8 0 0 0 .488 0 .577.577 0 0 0 .196-.156c.3-.287.3-.58 0-.88l-1.328-1.328 1.328-1.328a.556.556 0 0 0 .195-.43zm3.223-5.117h3.75c.17 0 .313-.06.43-.176a.556.556 0 0 0 .195-.43.577.577 0 0 0-.195-.45.556.556 0 0 0-.43-.194h-3.75a.617.617 0 0 0-.45.195.608.608 0 0 0-.175.449c0 .17.059.313.176.43.13.117.28.176.449.176zm0 6.25h3.75c.17 0 .313-.06.43-.176a.556.556 0 0 0 .195-.43.577.577 0 0 0-.195-.45.556.556 0 0 0-.43-.194h-3.75a.617.617 0 0 0-.45.195.608.608 0 0 0-.175.449c0 .17.059.313.176.43.13.117.28.175.449.175zm0 2.5h3.75c.17 0 .313-.06.43-.176a.556.556 0 0 0 .195-.43.577.577 0 0 0-.195-.45.556.556 0 0 0-.43-.194h-3.75a.617.617 0 0 0-.45.195.608.608 0 0 0-.175.449c0 .17.059.313.176.43.13.117.28.175.449.175z" fill="#C78E66"/></svg>
